X:1
T:Loingtain despoir
T:Longtain despoir 3v
T:Tielman Susato
T:Source : Ier Livre des Chansons à 3 parties---Anvers---T.Susato---1544. Editor : André Vierendeels (28/01/15)
C:Tielman Susato
%%score [ 1 [ 2 3 ] ]
L:1/8
Q:1/4=94
M:2/2
K:C
V:1 treble nm="Superius" snm="S"
V:2 treble-8 nm="Tenor 1" snm="T 1"
V:3 treble-8 nm="Tenor 2" snm="T 2"
V:1
 z8 | A8 | B4 c4- | c2 BA B2 c2 | d2 d2 d2 e2 | d2 c2 B2 A2 | d4 c2 B2- | BA A4 G2 | A4 z2 A2 | %9
w: |Long-|tain des-||poir ban- ny de|tout _ _ _|plai- * *||sir, ri-|
 A2 B2 A2 c2 | B2 A2 G2 F2 | E4 z2 A2 | A2 B2 A2 c2 | B2 A2 G2 F2 | EF GA B2 GA | Bc d4 c2- | %16
w: gueur me prent et|lan- gueur me sai-|si, ri-|gueur me prent et|lan- gueur me sai-|si, _ _ _ _ me _|_ _ sai- *|
 c2 B2 c4 | z2 e2 d2 c2 | B2 A2 B2 d2 | c2 B2 c4- | c2 BA B4 | A4 z4 | A4 B2 d2 | c2 c2 d2 f2 | %24
w: * * si,-|ma mort m'est|prest qui bien fort-|me me- na-||che,|qu'en peu de|temps me fe- ra|
 e2 d2 c2 d2- | dc cB/A/ B4 | A4 z4 |: d4 d2 c2 | d2 z A A2 G2 | A2 A2 d3 B | c2 d2 B2 z G | %31
w: mou- rir en pla-||che,|si de brief|nay, si de brief|nay da- mour quel-|que mer- chy, da-|
 c3 A B2 c2 | A2 z D G2 E2 | F2 GF ED E2 |1 D2 A2 d2 B2 | c2 dc BA c2 | B2 A4 G2 |"^#" A4 z4 :|2 %38
w: mour quel- que mer-|chy, da- mour quel-|que mer- * * * *|chy, da- mour quel-|que mer- * * * *||chy,|
 D2 A2 d2 B2 || c2 dc BA c2 | B2 A4 G2 | A8 |] %42
w: chy, da- mour quel-|que mer- * * * *||chy.|
V:2
 A3 B c2 d2- | de fe fg a2- | a2 g2 a3 g/f/ | ef g4 fe | d4 g4 | g2 a2 g2 f2- |"^b" f2 ed e3 d | %7
w: Long- * * tain|_ _ _ _ _ _ _|* des- poir _ _|_ _ _ _ _|* ban-|ny de tout plai-||
 c2 d2 B4 | A8 | z2 d2 d2 e2 | d2 f2 e2 d2 | c3 B A4 | z2 d2 d2 e2 | d2 f2 e2 d2 | cd ef g3 f | %15
w: |sir,|ri- gueur me|prent et lan- gueur|me sai- si,|ri- gueur me|prent et lan- gueur|me _ _ _ _ _|
 de f2 e2 c2 | d2 e3 d cB | A4 z2 a2 | g2 f2 e2 d2 | e2 g2 f2 e2 |"^b""^b" f/e/f/g/ a4 g2 | %21
w: _ _ _ _ sai-||si, ma|mort m'est prest qui|bien fort me me-|na- * * * * *|
 a2 d2 e2 g2 | f2 f2 g2 b2 | a4 g2 f2 | g3 f e2 de | fg a4 g2 | a2 z d d2 c2 |: d3 e f2 e2 | %28
w: |che, qu'en peu de|temps me fe-|ra- mou- rir en _|_ _ pla- *|che, si de brief|nay, de brief nay,|
 z d f3 d e2 | f2 d2 z d g2 | e2 f2 g2 e2 | z c f2 d2 e2 | f2 d2 z G c2 | A2 B2 c d2 c |1 %34
w: da- mour quel- que|mer- chy, da- mour|quel- que mer- chy,|da- mour quel- que|mer- chy, mour quel-|que mer- * * *|
 dd f2 d2 e2- | e2 d4 c2 | dc cB/A/ B4 | A2 z d d2 c2 :|2 dd f2 d2 e2- || e2 d4 c2 | dc BA B4 | %41
w: chy, da- mour quel- que|_ mer- *||chy, si- de brief|chy, da- mour quel- que|_ mer- *||
 A8 |] %42
w: chy.|
V:3
 A4 F2 D2 | d6 c2 | B4 A4- |"^#" A2 GF G2 A2 | (3B3 c d2 G4 | z2 F2 G2 A2 | B4 A2 G2 | A2 D2 E4 | %8
w: Long- tain des-|poir ban|ny de|_ _ _ _ tout|plai- * * sir|ban- ny de|tout plai- *|* * sir,|
 z2 A2 c3 B | A2 G2 F2 C2 | G2 F2 G2 D2 | A2 A2 c3 B | A2 G2 F2 C2 | G2 F2 G2 D2 | A2 GF E3 F | %15
w: ri- gueur _|_ me prent et|lan- gueur me sai-|si, ri- gueur _|_ me prent, et|lan- gueur me sai-|si, _ _ _ _|
 G2 D2 A4 | G4 C4 | z2 c2 B2 A2 | E2 F2 G2 B2 |"^b" A2 G2 A3 G | F4 E2 E2 | F2 F2 E2 z E | %22
w: _ me sai-|* si,|la mort m'est|prest qui bien fort|me me- na- *|* che, qu'en|peu de temps, qu'en|
 F2 A2 G2 G2 | A2 c2 _B4 | G4 A2 B2- | BA F2 G4 | D2 D2 F2 E2 |: D2 D2 A2 A2 | D2 z D F2 G2 | %29
w: peu de temps me|fe- ra mou-|rir en pla-||che si de bref|nay, si de bref|nay, si de- brief-|
 DD d2 G2 G2 | A2 D2 z G c2 | F2 F2 G2 C2 | z D G2 C2 C2 | F2 ED A2 z A |1 d3 c B2 G2 | A2 D2 A4 | %36
w: nay da- mour quel- que|mer- chy, da- mour|quel- que mer- chy,|da- mour quel- que|mer- * * chy, da-|mour quel- que mer-|chy, da- mour|
 G2 F2 E4 | F2 D2 F2 E2 :|2 d4 B2 G2 || A2 DD A4 | G2 F2 E4 | A8 |] %42
w: quel- que mer-|chy, si de brief|mour quel- que|mer- chy, da- mour|quel- que mer-|chy.|

